X: 17414
T: Highest Hill In Sligo, The
R: reel
M: 4/4
K: Dmajor
FdAF G2EG FDFA GFEG|FDFA dfaf gfed cBAG|
FdAF G2EG FDFA GFEG|FAdf ecdB AFGE D4:|
|:fgaf dfaf ~g3a bgeg|fgaf dfaf gbeg fddc|
dfaf b2af gfed cBAG|FAdf ecdB AFGE D2:|

